!!!COM: Bach, Johann Sebastian
!!!CDT: 1685/3//-1750/7/28/
!!!OTL@@DE: Freu' dich sehr, O meine Seele
!!!OTL@EN:  Rejoice greatly, O my soul
!!!OPR@@DE: Cantata: Brich dem Hungrigen dein Brot, BWV 39
!!!ONB: Chorale is at the conclusion to Part II of the Cantata
!!!AGN: 4-Part Chorale
!!!SCT: BH 067
!!!SCT: BWV 39
!!!ONB: Harmony and Root analysis done manually by Craig Sapp (not yet proofed)
**harm	**root	**kern	**kern	**kern	**kern
!	!	!bass	!tenor	!alto	!sprno
*	*Iorgan	*Iorgan	*Iorgan	*Iorgan	*Iorgan
*	*	*clefF4	*clefF4	*clefG2	*clefG2
*k[f#c#g#d#a#e#]	*k[f#c#g#d#a#e#]	*k[f#c#g#d#a#e#]	*k[f#c#g#d#a#e#]	*k[f#c#g#d#a#e#]	*k[f#c#g#d#a#e#]
*F#:	*F#:	*F#:	*F#:	*F#:	*F#:
*M4/4	*M4/4	*M4/4	*M4/4	*M4/4	*M4/4
*met(c)	*met(c)	*met(c)	*met(c)	*met(c)	*met(c)
*MM60	*MM60	*MM60	*MM60	*MM60	*MM60
*>[A,A,B]	*>[A,A,B]	*>[A,A,B]	*>[A,A,B]	*>[A,A,B]	*>[A,A,B]
*>A	*>A	*>A	*>A	*>A	*>A
I	4GG	4F#	4A#	4c#	4f#
Vb	4DD	4E#	4G#	4c#	4g#
I	4GG	4F#	4F#	4c#	4a#
V	4DD	4C#	4E#	4c#	4g#
=2	=2	=2	=2	=2	=2
vi7	8EE	4D#	4F#	8c#	4f#
viio7b/V	8CC#	.	.	8B#	.
V	4DD	8E#	4G#	4c#	4e#
.	.	8F#	.	.	.
ii	8AA	8G#	8G#	4B#	4d#
ii7	8AA	8GG#	8F#	.	.
V;	4DD;	4C#;	4E#;	4G#;	4c#;
=3	=3	=3	=3	=3	=3
vi	4EE	4D#	4A#	4d#	4f#
Vb	4DD	4E#	4G#	4c#	4g#
I	4GG	4F#	8F#	4c#	4a#
.	.	.	8E#	.	.
IVb	4CC	4D#	4F#	4B	4b
=4	=4	=4	=4	=4	=4
Ic	4GG	8C#	4F#	4c#	4a#
.	.	8BB	.	.	.
V	4DD	4C#	4E#	8c#	4g#
.	.	.	.	8B	.
I;	2GG;	2FF#;	2C#;	2A#;	2f#;
=5:|!	=5:|!	=5:|!	=5:|!	=5:|!	=5:|!
I	4GG	4FF#	4c#	4f#	4a#
viiob	4FF#	4GG#	4B	8e#	4b
.	.	.	.	8d#	.
iii	8BB	4AA#	8E#	8c#	4cc#
Vc/II	8EE	.	8F##	16d#	.
.	.	.	.	16e	.
iib	4AA	8BB	4G#	4d#	4b
.	.	8C#	.	.	.
=6	=6	=6	=6	=6	=6
vi	4EE	8D#	4F#	4d#	4a#
.	.	8C#	.	.	.
ii	4AA	4BB	4B	4d#	4g#
V/VI;	2BB;	2AA#;	2E#;	2c##;	2a#;
!!linebreak: 2
=7	=7	=7	=7	=7	=7
I	4GG	4AA#	8F#	4c#	4cc#
.	.	.	8G#	.	.
I	4GG	4FF#	4A#	4f#	4cc#
IV	4CC	4BB	8B	4f#	4dd#
.	.	.	8A#	.	.
V	4DD	4C#	4G#	4e#	4cc#
=8	=8	=8	=8	=8	=8
IVb	4CC	8D#	8F#	4d#	4b
.	.	8E#	8G#	.	.
I	4GG	4F#	8A#	8c#	4a#
.	.	.	8B#	8d#	.
V;	2DD;	2C#;	2c#;	2e#;	2g#;
=9	=9	=9	=9	=9	=9
I	4GG	4F#	8c#	4f#	8a#
.	.	.	8B	.	8b
I	4GG	4FF#	4A#	4f#	4cc#
ii7	4AA	4GG#	4G#	8f#	4b
.	.	.	.	8e#	.
Ib	4GG	4AA#	4C#	8f#	8a#
.	.	.	.	8e#	8g#
=10	=10	=10	=10	=10	=10
IV	4CC	8BB	4D#	8d#	4f#
.	.	8AA#	.	8c#	.
viiob	4FF#	4GG#	4E#	4B	4g#
I	4GG	8FF#	4F#	8A#	2a#
.	.	8GG#	.	8B#	.
V/VI	4BB	4AA#	4E#	4c##	.
=11	=11	=11	=11	=11	=11
vi;	2EE;	2DD#;	2D#;	2d#;	2f#;
vi	4EE	4D#	4F#	4d#	8a#
.	.	.	.	.	8b
viio7/II	4GG#	4AA#	4F##	4e	4cc#
=12	=12	=12	=12	=12	=12
iib	4AA	4BB	4G#	8d#	4b
.	.	.	.	8e#y	.
viiD7/V	4CC#	4BB#	4D#	4f#	4a#
V	4DD	8C#	4E#	8e#	4g#
.	.	8BB	.	8d#	.
Ib	4GG	8AA#	4F#	4c#	4a#
.	.	8FF#	.	.	.
=13	=13	=13	=13	=13	=13
V	2DD	2C#	4F#	4.c#	2g#
.	.	.	4E#	.	.
.	.	.	.	8B	.
I;	2GG;	2FF#;	2C#;	2A#;	2f#;
==	==	==	==	==	==
*-	*-	*-	*-	*-	*-
!!chor2scor: -l 2 -s 0.6 -o %b.pmx
!!!ONB: In the cantata, the key of the chorale is B-flat
!!!YEC: Copyright 2001 by Craig Stuart Sapp
!!!license: GNU General Public License (http://www.gnu.org/copyleft/gpl.html)
!!!SMA: J.S. Bach Chorale Harmonizations, edited by Ludwig Erk, C.F. Peters
!!!PDT: 1850, 1865
